X: 1
T:Riley's Favorite
M:C|
L:1/8
R:reel
B:Ryan's Mammoth Collection
N:289
Z:Contributed by Ray Davies,  ray:davies99.freeserve.co.uk
K:D
u(FE)|\
D2(DF) A2(AB) | AFdB AFDF | (E"4"e)ed e2ef | gfed B2d2 |
D2(DF) A2(AB) | AFdB AFDF | G2(BG) F2(AF) | GABc d2:|
|:uA2|\
dcde dAFA | dcdB A2(FD) | edef ecAc | gfed B2d2 |
dcde dAFA | dcdB AFDF | G2(BG) F2(AF) | GABc d2:|
